media/img/mob-icon-noun-personal-data.svg

<svg width="67" height="55" viewBox="0 0 67 55" fill="none" xmlns="http://www.w3.org/2000/svg">
<g clip-path="url(#clip0_623_4448)">
<path d="M54.1334 11.8108L52.0684 4.07341C51.2946 1.16593 48.3117 -0.557213 45.4139 0.221094L4.06262 11.3295C1.16483 12.1099 -0.555552 15.0964 0.21867 18.004L7.60368 45.627C7.9395 46.8948 8.71578 47.9206 9.70333 48.6243V20.8876C9.70333 15.8812 13.7608 11.8103 18.7519 11.8103L54.1334 11.8108Z" fill="white"/>
<path d="M61.5647 15.4404H18.7532C15.7553 15.4404 13.3242 17.8804 13.3242 20.8885V49.4847C13.3242 52.4953 15.7553 54.9327 18.7532 54.9327H61.5647C64.5647 54.9327 66.9981 52.4951 66.9981 49.4847V20.8885C66.9981 17.8799 64.5647 15.4404 61.5647 15.4404ZM37.0572 44.3553H20.5972V37.956C20.5972 36.0738 22.1215 34.541 24.0051 34.541H25.344C24.0728 33.5157 23.242 31.9614 23.242 30.1992C23.242 27.1033 25.7407 24.5979 28.8282 24.5979C31.9158 24.5979 34.4145 27.1033 34.4145 30.1992C34.4145 31.9633 33.5837 33.518 32.3148 34.541H33.6514C35.533 34.541 37.0592 36.0713 37.0592 37.956V44.3553H37.0572ZM53.4512 44.3879H42.6389V40.7586H53.4512V44.3879ZM60.2275 36.3579H42.6386V32.7286H60.2275V36.3579ZM60.2275 28.3278H42.6386V24.6985H60.2275V28.3278Z" fill="white"/>
</g>
<defs>
<clipPath id="clip0_623_4448">
<rect width="67" height="55" fill="white"/>
</clipPath>
</defs>
</svg>

<svg width="67" height="55" viewBox="0 0 67 55" fill="none" xmlns="http://www.w3.org/2000/svg"><g clip-path="url(#clip0_623_4448)" fill="#fff"><path d="M54.133 11.81l-2.065-7.737A5.43 5.43 0 0045.414.221L4.063 11.33c-2.898.78-4.619 3.767-3.844 6.675l7.385 27.623c.335 1.268 1.112 2.294 2.1 2.997V20.888c0-5.007 4.057-9.078 9.048-9.078h35.381z"/><path d="M61.565 15.44H18.753c-2.998 0-5.429 2.44-5.429 5.449v28.596c0 3.01 2.431 5.448 5.43 5.448h42.81c3 0 5.434-2.438 5.434-5.448V20.889c0-3.01-2.433-5.449-5.433-5.449zM37.057 44.355h-16.46v-6.399a3.413 3.413 0 013.408-3.415h1.339c-1.271-1.025-2.102-2.58-2.102-4.342a5.59 5.59 0 015.586-5.601 5.59 5.59 0 015.586 5.601c0 1.764-.83 3.319-2.1 4.342h1.337a3.413 3.413 0 013.408 3.415v6.4h-.002zm16.394.033H42.64v-3.63h10.81v3.63zm6.776-8.03H42.64v-3.63h17.588v3.63zm0-8.03H42.64v-3.63h17.588v3.63z"/></g><defs><clipPath id="clip0_623_4448"><path fill="#fff" d="M0 0h67v55H0z"/></clipPath></defs></svg>
